src/assets/twitch.svg

<svg width="24" height="24" viewBox="0 0 24 24" fill="none" xmlns="http://www.w3.org/2000/svg">
<path d="M5.7855 0L1.5 4.2855V19.7145H6.6435V24L10.929 19.7145H14.355L22.071 12V0H5.7855ZM20.3565 11.1435L16.929 14.571H13.5L10.5 17.571V14.571H6.6435V1.7145H20.3565V11.1435Z" fill="#F6F6F6"/>
<path d="M17.7855 4.7146H16.071V9.8551H17.7855V4.7146ZM13.071 4.7146H11.3565V9.8551H13.071V4.7146Z" fill="#F6F6F6"/>
</svg>

<svg xmlns="http://www.w3.org/2000/svg" width="24" height="24" fill="none" viewBox="0 0 24 24"><path fill="#f6f6f6" d="M5.786 0 1.5 4.286v15.429h5.144V24l4.285-4.285h3.426L22.071 12V0zm14.57 11.144L16.93 14.57H13.5l-3 3v-3H6.644V1.715h13.713z"/><path fill="#f6f6f6" d="M17.786 4.715H16.07v5.14h1.714zm-4.715 0h-1.714v5.14h1.714z"/></svg>
